X:1
T:Parting Hornpipe by Hewarth. Roose.1038
T:Parting Hornpipe by Hewarth. Roose.1038
T:Hewarth
C:Hewarth
L:1/8
Q:1/2=80
M:2/2
K:A
V:1 treble 
V:1
 E2 | c2 cd B2 Bc | AEFG A2 ce | eddB dccA | BAGF EedB | c2 cd B2 Bc | AEFG Aagf | fecA edBG | %8
 A2 A2 A2 :: GA | BcBA GEba | gbfg eBGB | AFdB gebg | af^df e2 dc | dbFE DFcB | caED CEAG | %16
 FDBA GEbd | caEG A2 :| %18

